!!!!SEGMENT: pl-wn--sd-xvi-qu-273--132_gomolka-mikolaj--pomni-panie-dawida-i-jego-trudnosci.krn
!!!cenid: 15xx:337
!!!COM: Gomółka, Mikołaj
!!!COM-rismid: pe30013343
!!!CDT: ~1535->1591/04/30
!!!CNT: Polish
!!!GTL: Melodiae na psalterz polski
!!!OTL: CXXXII. Pomni, Panie, Dawida i jego trudności,
!!!ONB: PSAL: CXXXII. Memento domine David: et omnis manſuetudinis eius.
!!!PDT: 1580
!!!AGN: Sacred
!!!SMS-siglum: PL-Wn
!!!SMS-shelfmark: SD XVI.Qu.273
!!!SMS-shelfwork: 132 G
!!!NIFC-rismid:
!!!ONB-nifc: Melodiae na psalterz polski
**kern	**text	**kern	**text	**kern	**text	**kern	**text
*part4	*part4	*part3	*part3	*part2	*part2	*part1	*part1
*staff4	*staff4	*staff3	*staff3	*staff2	*staff2	*staff1	*staff1
*clefF4	*	*clefC3	*	*clefC3	*	*clefC1	*
*k[b-]	*	*k[b-]	*	*k[b-]	*	*k[b-]	*
*d:	*	*d:	*	*d:	*	*d:	*
*M2/1	*	*M2/1	*	*M2/1	*	*M2/1	*
*met(C|)	*	*met(C|)	*	*met(C|)	*	*met(C|)	*
*I"BASSUS.	*	*I"TENOR.	*	*I"ALTUS.	*	*I"CANTUS.	*
=1-	=1	=1-	=1	=1-	=1	=1-	=1
1GG/	PO-	1G/	PO-	1d\	PO-	1g\	PO-
2GG/	-mni,	2G/	-mni,	2d\	-mni,	2g/	-mni,
1G\	pá-	2G/	pá-	2d\	pá-	2b-\	pá-
=2-	=2	=2-	=2	=2-	=2	=2-	=2
.	.	2A/	-nie,	2d\	-nie,	2a\	-nie,
2F#X\	-nie,	2A/	Da-	2d\	Da-	1a\	Da-
2G\	Da-	1B-/	-wi-	2.d\	-wi-	.	.
2G\	-wi-	.	.	.	.	2g/	-wi-
.	.	.	.	4e\	-dá	.	.
=3-	=3	=3-	=3	=3-	=3	=3-	=3
2D/	-dá	2A/	-dá	2.f\	y	2a\	-dá
2D/	y	2F/	y	.	.	2d/	y
.	.	.	.	4e\	ié-	.	.
2BB-/	ié-	2B-/	ié-	2d\	-go	2.f/	ié-
2C/	-go	4A/	-go	4c/	tru-	.	.
.	.	4G/	.	4B-/	.	4e/	-go
=4-	=4	=4-	=4	=4-	=4	=4-	=4
2D/	tru-	2F#X/	tru-	2A/	-dno-	2d/	tru-
2E\	-dno-	1G/	-dno-	2G/	-śći,	2c/	-dno-
1D\	-śći,	.	.	1A/	Któ-	1d/	-śći,
!	!	!LO:SIC:s=2F#:v	!	!	!	!	!
.	.	2Fny/	-śći,	.	.	.	.
=5-	=5	=5-	=5	=5-	=5	=5-	=5
2GG/	Któ-	2G/	Któ-	2BnX/	.	2d/	Któ-
2GG/	-ré	2B-/	-ré	2d\	-ré	2g/	-ré
2GG/	ćier-	2B-/	ćier-	2.d\	ćier-	2g/	ćier-
2G\	.	2B-/	.	.	.	2b-\	.
.	.	.	.	4e\	.	.	.
=6-	=6	=6-	=6	=6-	=6	=6-	=6
!!LO:PB:g=original
2Fny\	-piał	2c/	-piał	2f\	-piał	2a\	-piał
2D\	w ná-	1d\	.	2F/	w ná-	2a\	w ná-
1E\	-dʒ́ie-	.	.	1G/	-dʒ́ie-	1g\	-dʒ́ie-
.	.	2c/	w ná-	.	.	.	.
=7-	=7	=7-	=7	=7-	=7	=7-	=7
2D/	-ię	2d\	.	4A/	-ię	2f/	-ię
.	.	.	.	4B-y/	.	.	.
1C/	two-	2.G/	-dʒ́ie-	1c\	two-	1g\	two-
.	.	4A/	-ię	.	.	.	.
2GG/	-iéy	2B-/	two-	2d\	-iéy	2g/	-iéy
=8-	=8	=8-	=8	=8-	=8	=8-	=8
2BB-/	ʒ̇y-	2F/	-iéy	2d\	ʒ̇y-	2f/	ʒ̇y-
2BB-/	-cʒli-	4B-/	ʒ̇y-	2d\	-cʒli-	2f/	-cʒli-
.	.	4A/	-cʒli-	.	.	.	.
1C/	-wo-	4G/	-wo-	2.c/	-wo-	1e/	-wo-
.	.	4F/	-śći.	.	.	.	.
.	.	2G/	.	.	.	.	.
.	.	.	.	4B-/	-śći.	.	.
=9-	=9	=9-	=9	=9-	=9	=9-	=9
*	*	*	*	*000/left	*	*	*
000F\	-śći.	000F/	.	000A/	.	000d/	-śći.
==	==	==	==	==	==	==	==
*-	*-	*-	*-	*-	*-	*-	*-
!!!RDF**kern: l = terminal long
!!!system-decoration: s1,s2,s3,s4
!!!ENC: Marta Lawrence
!!!END: 2020-02-22
!!!URL-scan: https://polona.pl/item/melodiae-na-psalterz-polski,Nzk3MTM4ODQ/309 Scan on Polona
!!!IIIF: https://polona.pl/iiif/item/Nzk3MTM4ODQ/manifest.json
